X:664
T:
N:
S:Efter fanjunkare Lindbohm m.fl.
R:kadrilj
O:Gotland
M:2/4
L:1/16
K:Bb
F2|BBB2 BFGA|BFDC B,2 AB|ccc2 dBAB|cBAG F4|decd BcAB|GAFG EFDE|CEDE
Acec|B2d2B2::f2|A3B c2f2|B3c d2f2|efdf efdf|c2c2c2^c2|d3d dcBA|G2E2 e3c|BAGF
=EFGA|B2d2B2::F2|B2FF F2F2|G2F2 F4|FGAB cdec|B2d2B2F2|B2FF F2F2|G2F2 F4|FGAB
cdec|B4 z2::d2|c3dc3d|c2dc B2A2|c4 cBAB|cBAG F2F2|B2FF F2F2|G2F2 F4|FGAB
cdec|B2d2B2:|

